X: 291
T: Pipers Maggot
R: slip-jig
B: Robert Bremner "A Collection of Scots Reels or Country Dances" p.29 #1
S: http://imslp.org/wiki/A_Collection_of_Scots_Reels_or_Country_Dances_(Bremner,_Robert)
Z: 2013 John Chambers <jc:trillian.mit.edu>
M: 9/8
L: 1/8
K: Gmix
% - - - - - - - - - - - - - - - - - - - - - - - - -
V: 1
d |\
TB2G GAG dBG | (B/c/d)B gdB deg |\
TB2G GAG dBG | (A/B/c)A fcA c2 :|
|: d |\
TB2d gdB gdc | TB2d gdB deg |\
TB2d gdB gdB | (A/B/c)A fcA c2 :|
% - - - - - - - - - - - - - - - - - - - - - - - - -
V: 2 clef=bass middle=d
z |\
g3 g3 g3 | g3 g3 g3 |\
g3 g3 g3 | a3 a3 a2 :|\
|: z |\
g3 g3 g3 |
g3 g3 g3 |\
g3 g3 g3 | f3 f3 f2 :|
% - - - - - - - - - - - - - - - - - - - - - - - - -

%%sep 1 1 500
%%sep 1 1 500
